Hatter-kde-dark/actions/24/transform-shear-right.svg

<?xml version="1.0" encoding="UTF-8"?>
<svg viewBox="0 0 24 24" xmlns="http://www.w3.org/2000/svg">
 <defs id="defs3051">
  <style id="current-color-scheme" type="text/css">.ColorScheme-Text {
        color:#dedede;
      }</style>
 </defs>
 <path class="ColorScheme-Text" d="m7 4v5h1v-4h11v8h-2v1h2 1v-1-9h-1-11-1zm-2 6-0.90039 9-0.099609 1h1 9 1l0.90039-9 0.099609-1h-1-9-1zm0.90039 1h9l-0.80078 8h-9l0.80078-8z" fill="currentColor"/>
</svg>

<svg xmlns="http://www.w3.org/2000/svg" viewBox="0 0 24 24">
  <defs id="defs3051">
    <style type="text/css" id="current-color-scheme">
      .ColorScheme-Text {
        color:#dedede;
      }
      </style>
  </defs>
 <path style="fill:currentColor;fill-opacity:1;stroke:none" 
     d="M 7 4 L 7 9 L 8 9 L 8 5 L 19 5 L 19 13 L 17 13 L 17 14 L 19 14 L 20 14 L 20 13 L 20 4 L 19 4 L 8 4 L 7 4 z M 5 10 L 4.0996094 19 L 4 20 L 5 20 L 14 20 L 15 20 L 15.900391 11 L 16 10 L 15 10 L 6 10 L 5 10 z M 5.9003906 11 L 14.900391 11 L 14.099609 19 L 5.0996094 19 L 5.9003906 11 z "
     class="ColorScheme-Text"
     />
</svg>
